T: Top It Off
M: 9/8
L: 1/8
K: Dmaj
AGF AGF d2 A | Bcd edc d2 B | AGF AGF d2 A | Bcd AGF D2 :|f2 d dcd dcd | e2 =c cBc cBc |1 d2 B B^AB BAB | c2 A A^GA AG :|2 d=cB dcB d^cB | AGF edc d2 ||
